images/svg/007-maternity.svg

<svg id="efj4mvmkwthl1" xmlns="http://www.w3.org/2000/svg" xmlns:xlink="http://www.w3.org/1999/xlink" viewBox="0 0 512.010000 512.010000" shape-rendering="geometricPrecision" text-rendering="geometricPrecision"><style><![CDATA[#efj4mvmkwthl5_to {animation: efj4mvmkwthl5_to__to 3000ms linear 1 normal forwards}@keyframes efj4mvmkwthl5_to__to { 0% {transform: translate(731.592970px,120.837597px)} 33.333333% {transform: translate(731.592970px,120.837597px)} 66.666667% {transform: translate(255.873565px,120.837597px)} 100% {transform: translate(255.873565px,120.837597px)} }#efj4mvmkwthl7_to {animation: efj4mvmkwthl7_to__to 3000ms linear 1 normal forwards}@keyframes efj4mvmkwthl7_to__to { 0% {transform: translate(759.390447px,351.450500px)} 33.333333% {transform: translate(759.390447px,351.450500px)} 66.666667% {transform: translate(283.671042px,351.450500px)} 100% {transform: translate(283.671042px,351.450500px)} }#efj4mvmkwthl9_to {animation: efj4mvmkwthl9_to__to 3000ms linear 1 normal forwards}@keyframes efj4mvmkwthl9_to__to { 0% {transform: translate(700.781828px,465.840134px)} 33.333333% {transform: translate(700.781828px,465.840134px)} 66.666667% {transform: translate(225.062423px,465.840134px)} 100% {transform: translate(225.062423px,465.840134px)} }#efj4mvmkwthl11_to {animation: efj4mvmkwthl11_to__to 3000ms linear 1 normal forwards}@keyframes efj4mvmkwthl11_to__to { 0% {transform: translate(697.752676px,331.101303px)} 33.333333% {transform: translate(697.752676px,331.101303px)} 66.666667% {transform: translate(222.033271px,331.101303px)} 100% {transform: translate(222.033271px,331.101303px)} }#efj4mvmkwthl13_to {animation: efj4mvmkwthl13_to__to 3000ms linear 1 normal forwards}@keyframes efj4mvmkwthl13_to__to { 0% {transform: translate(721.108038px,167.205189px)} 33.333333% {transform: translate(721.108038px,167.205189px)} 66.666667% {transform: translate(245.388633px,167.205189px)} 100% {transform: translate(245.388633px,167.205189px)} }#efj4mvmkwthl15_to {animation: efj4mvmkwthl15_to__to 3000ms linear 1 normal forwards}@keyframes efj4mvmkwthl15_to__to { 0% {transform: translate(611.221792px,244.299011px)} 33.333333% {transform: translate(611.221792px,244.299011px)} 66.666667% {transform: translate(135.502387px,244.299011px)} 100% {transform: translate(135.502387px,244.299011px)} }#efj4mvmkwthl17_to {animation: efj4mvmkwthl17_to__to 3000ms linear 1 normal forwards}@keyframes efj4mvmkwthl17_to__to { 0% {transform: translate(599.614782px,405.087006px)} 33.333333% {transform: translate(599.614782px,405.087006px)} 66.666667% {transform: translate(123.895377px,405.087006px)} 100% {transform: translate(123.895377px,405.087006px)} }#efj4mvmkwthl19_to {animation: efj4mvmkwthl19_to__to 3000ms linear 1 normal forwards}@keyframes efj4mvmkwthl19_to__to { 0% {transform: translate(726.234792px,182.783005px)} 66.666667% {transform: translate(726.234792px,182.783005px)} 100% {transform: translate(255.220387px,182.783005px)} }#efj4mvmkwthl21_to {animation: efj4mvmkwthl21_to__to 3000ms linear 1 normal forwards}@keyframes efj4mvmkwthl21_to__to { 0% {transform: translate(736.831754px,256.005280px)} 33.333333% {transform: translate(256.005122px,256.005280px)} 100% {transform: translate(256.005122px,256.005280px)} }#efj4mvmkwthl22_to {animation: efj4mvmkwthl22_to__to 3000ms linear 1 normal forwards}@keyframes efj4mvmkwthl22_to__to { 0% {transform: translate(638.721052px,314.640762px)} 33.333333% {transform: translate(638.721052px,314.640762px)} 66.666667% {transform: translate(163.001647px,314.640762px)} 100% {transform: translate(163.001647px,314.640762px)} }]]></style><g id="efj4mvmkwthl2"><g id="efj4mvmkwthl3"><g id="efj4mvmkwthl4"><g id="efj4mvmkwthl5_to" transform="translate(731.592970,120.837597)"><path id="efj4mvmkwthl5" d="M131.590000,177.897000C108.072000,129.422000,112.347000,74.530000,146.855000,40.021000C192.639000,-5.763000,274.303000,1.672000,329.258000,56.627000C381.377000,108.746000,390.753000,184.890000,352.526000,231.665000Z" transform="translate(-246.359177,-120.837597)" fill="rgb(255,216,142)" stroke="none" stroke-width="1"/></g></g><g id="efj4mvmkwthl6"><g id="efj4mvmkwthl7_to" transform="translate(759.390447,351.450500)"><path id="efj4mvmkwthl7" d="M283.329000,213.521000L133.344000,200.891000C84.027000,281.906000,83.379000,375.652000,138.336000,430.609000C151.949000,444.222000,167.943000,454.420000,185.533000,461.315000C184.068000,477.433000,194.613000,493.344000,211.848000,496.928000C227.785000,500.242000,244.556000,502.010000,261.870000,502.010000C366.651000,502.010000,451.593000,437.225000,451.593000,357.308000C451.593000,282.925000,378.007000,221.650000,283.329000,213.521000Z" transform="translate(-274.156654,-351.450500)" fill="rgb(255,122,122)" stroke="none" stroke-width="1"/></g></g><g id="efj4mvmkwthl8"><g id="efj4mvmkwthl9_to" transform="translate(700.781828,465.840134)"><path id="efj4mvmkwthl9" d="M189.898000,447.647000C178.543000,467.263000,189.657000,492.314000,211.848000,496.928000C219.667000,498.554000,227.689000,499.802000,235.875000,500.658000L245.706000,435.258000L245.679000,435.239000C239.088000,434.544000,232.673000,433.447000,226.496000,431.954000C212.170000,428.491000,197.281000,434.892000,189.898000,447.647000Z" transform="translate(-215.548035,-465.840134)" fill="rgb(244,198,175)" stroke="none" stroke-width="1"/></g></g><g id="efj4mvmkwthl10"><g id="efj4mvmkwthl11_to" transform="translate(697.752676,331.101303)"><path id="efj4mvmkwthl11" d="M248.819000,317.945000L267.213000,310.740000C289.318000,302.081000,307.823000,285.853000,318.497000,264.647000C324.861000,252.004000,328.225000,238.363000,328.311000,224.230000C328.316000,223.503000,328.282000,222.782000,328.217000,222.068000L328.065000,221.655000C328.102000,221.666000,328.139000,221.677000,328.177000,221.688000C326.963000,210.433000,317.365000,201.059000,305.872000,200.892000C293.136000,200.707000,282.754000,210.975000,282.754000,223.669000C282.754000,251.951000,254.502000,276.707000,216.530000,285.341000C195.747000,290.067000,170.581000,297.702000,150.610000,305.059000L150.607000,305.043000C143.004000,308.127000,134.698000,309.841000,125.988000,309.841000C115.861000,309.841000,106.271000,307.541000,97.709000,303.440000C92.855000,352.276000,105.918000,398.190000,138.335000,430.607000C151.948000,444.220000,167.942000,454.418000,185.532000,461.313000C185.953000,456.678000,187.361000,452.026000,189.897000,447.645000C197.280000,434.890000,212.169000,428.489000,226.494000,431.952000C237.630000,434.644000,249.520000,436.099000,261.868000,436.099000C279.370000,436.099000,295.949000,433.172000,310.768000,427.947000L307.483000,422.779000C307.483000,391.947000,284.402000,366.505000,254.576000,362.790000C249.382000,362.143000,244.536000,359.833000,240.835000,356.132000C228.953000,344.249000,233.169000,324.076000,248.819000,317.945000Z" transform="translate(-212.518883,-331.101303)" fill="rgb(203,244,251)" stroke="none" stroke-width="1"/></g></g><g id="efj4mvmkwthl12"><g id="efj4mvmkwthl13_to" transform="translate(721.108038,167.205189)"><path id="efj4mvmkwthl13" d="M166.859000,182.783000L169.891000,179.757000C186.732000,162.946000,193.334000,138.432000,187.213000,115.437000L210.965000,115.437000C218.288000,115.437000,225.490000,113.573000,231.893000,110.020000C248.726000,100.680000,269.710000,103.625000,283.322000,117.237000L286.042000,119.957000C311.172000,145.087000,311.172000,185.831000,286.042000,210.961000C260.912000,236.091000,220.168000,236.091000,195.038000,210.961000Z" transform="translate(-235.874245,-167.205189)" fill="rgb(244,198,175)" stroke="none" stroke-width="1"/></g></g><g id="efj4mvmkwthl14"><g id="efj4mvmkwthl15_to" transform="translate(611.221792,244.299011)"><circle id="efj4mvmkwthl15" r="65.543999" transform="translate(0,-0.000015)" fill="rgb(255,208,198)" stroke="none" stroke-width="1"/></g></g><g id="efj4mvmkwthl16"><g id="efj4mvmkwthl17_to" transform="translate(599.614782,405.087006)"><circle id="efj4mvmkwthl17" r="32.923000" transform="translate(0.000008,0)" fill="rgb(244,198,175)" stroke="none" stroke-width="1"/></g></g></g><g id="efj4mvmkwthl18"><g id="efj4mvmkwthl19_to" transform="translate(726.234792,182.783005)"><path id="efj4mvmkwthl19" d="M247.029000,166.755000C241.507000,166.755000,237.029000,171.233000,237.029000,176.755000C237.029000,177.889000,236.107000,178.811000,234.973000,178.811000C229.451000,178.811000,224.973000,183.289000,224.973000,188.811000C224.973000,194.333000,229.451000,198.811000,234.973000,198.811000C247.134000,198.811000,257.029000,188.916000,257.029000,176.755000C257.029000,171.233000,252.552000,166.755000,247.029000,166.755000Z" transform="translate(-241.000999,-182.783005)" fill="rgb(0,0,0)" stroke="none" stroke-width="1"/></g><g id="efj4mvmkwthl20"><g id="efj4mvmkwthl21_to" transform="translate(736.831754,256.005280)"><path id="efj4mvmkwthl21" d="M446.590000,391.866000C441.486000,389.743000,435.637000,392.161000,433.517000,397.260000C409.951000,453.934000,340.971000,492.011000,261.870000,492.011000C257.037000,492.011000,252.221000,491.849000,247.425000,491.562000L254.587000,445.924000C257.007000,446.030000,259.434000,446.101000,261.870000,446.101000C294.452000,446.101000,325.196000,436.612000,348.439000,419.382000C372.580000,401.486000,385.875000,377.411000,385.875000,351.591000C385.875000,346.069000,381.397000,341.591000,375.875000,341.591000C370.353000,341.591000,365.875000,346.069000,365.875000,351.591000C365.875000,378.176000,346.336000,401.549000,317.010000,414.739000C313.356000,382.856000,288.281000,356.914000,255.816000,352.868000C252.795000,352.493000,249.989000,351.141000,247.910000,349.062000C244.677000,345.828000,243.358000,341.406000,244.294000,336.928000C245.230000,332.450000,248.209000,328.925000,252.469000,327.257000L270.862000,320.052000C295.718000,310.315000,315.808000,292.236000,327.430000,269.144000C332.882000,258.313000,336.299000,246.933000,337.649000,235.195000C382.823000,251.062000,418.070000,280.889000,433.230000,316.671000C434.845000,320.483000,438.547000,322.773000,442.443000,322.773000C443.744000,322.773000,445.066000,322.517000,446.339000,321.978000C451.424000,319.823000,453.800000,313.954000,451.646000,308.869000C442.257000,286.712000,426.156000,266.136000,405.081000,249.366000C394.130000,240.652000,381.795000,232.955000,368.504000,226.454000C383.077000,202.945000,388.748000,173.944000,384.512000,143.535000C379.731000,109.221000,362.619000,75.845000,336.330000,49.556000C308.100000,21.327000,272.301000,3.936000,235.524000,0.588000C198.068000,-2.822000,164.063000,8.670000,139.784000,32.949000C106.034000,66.699000,97.659000,119.045000,116.992000,169.308000C79.565000,173.772000,50.444000,205.689000,50.444000,244.299000C50.444000,271.783000,65.202000,295.879000,87.205000,309.098000C85.789000,329.838000,87.492000,349.695000,92.280000,368.306000C79.813000,375.825000,71.457000,389.498000,71.457000,405.087000C71.457000,428.755000,90.712000,448.010000,114.380000,448.010000C122.247000,448.010000,129.620000,445.873000,135.966000,442.164000C147.597000,452.799000,160.859000,461.450000,175.531000,467.967000C175.944000,472.743000,177.150000,477.496000,179.190000,482.058000C184.923000,494.876000,196.084000,503.866000,209.811000,506.720000C226.698000,510.231000,244.212000,512.011000,261.868000,512.011000C304.700000,512.011000,345.516000,501.700000,379.906000,482.196000C414.110000,462.796000,439.033000,436.081000,451.982000,404.940000C454.104000,399.839000,451.689000,393.986000,446.590000,391.866000ZM153.927000,47.092000C173.934000,27.085000,202.268000,17.649000,233.711000,20.505000C265.838000,23.430000,297.259000,38.769000,322.187000,63.697000C367.888000,109.396000,379.172000,174.650000,349.914000,218.389000C345.548000,216.725000,341.109000,215.182000,336.605000,213.775000C332.692000,202.146000,322.443000,193.127000,310.246000,191.257000C319.966000,164.870000,314.269000,134.040000,293.115000,112.885000L290.394000,110.164000C273.715000,93.487000,247.664000,89.832000,227.040000,101.274000C222.135000,103.997000,216.576000,105.435000,210.965000,105.435000L187.213000,105.435000C184.107000,105.435000,181.177000,106.878000,179.284000,109.341000C177.391000,111.804000,176.750000,115.006000,177.550000,118.007000C182.736000,137.487000,177.095000,158.436000,162.827000,172.677000C162.827000,172.677000,159.343000,176.178000,159.135000,176.430000C152.828000,173.337000,146.027000,171.110000,138.888000,169.876000C118.447000,124.675000,124.181000,76.837000,153.927000,47.092000ZM199.640000,227.558000C211.997000,235.701000,226.268000,239.774000,240.539000,239.774000C251.071000,239.774000,261.599000,237.546000,271.361000,233.111000C265.802000,252.130000,243.902000,268.863000,214.314000,275.592000C207.316000,277.183000,199.666000,279.147000,191.786000,281.349000C197.980000,270.393000,201.534000,257.757000,201.534000,244.299000C201.533000,238.545000,200.865000,232.947000,199.640000,227.558000ZM202.108000,203.890000L180.855000,182.637000C194.478000,166.818000,201.021000,146.055000,199.113000,125.437000L210.964000,125.437000C219.962000,125.437000,228.876000,123.129000,236.744000,118.764000C249.604000,111.626000,265.850000,113.908000,276.250000,124.308000L278.971000,127.029000C289.237000,137.294000,294.890000,150.942000,294.890000,165.460000C294.890000,179.978000,289.237000,193.626000,278.971000,203.891000C257.781000,225.082000,223.300000,225.082000,202.108000,203.890000ZM70.444000,244.299000C70.444000,213.671000,95.361000,188.754000,125.988000,188.754000C156.254000,188.754000,180.926000,213.089000,181.506000,243.218000C180.283000,245.544000,177.547000,246.771000,174.935000,246.006000C169.634000,244.460000,164.081000,247.497000,162.530000,252.798000C160.980000,258.099000,164.021000,263.652000,169.322000,265.203000C171.707000,265.899000,174.136000,266.245000,176.552000,266.245000C176.705000,266.245000,176.858000,266.233000,177.011000,266.231000C168.489000,285.981000,148.830000,299.843000,125.989000,299.843000C95.361000,299.843000,70.444000,274.926000,70.444000,244.299000ZM114.381000,428.010000C101.741000,428.010000,91.458000,417.727000,91.458000,405.087000C91.458000,392.446000,101.741000,382.163000,114.381000,382.163000C127.021000,382.163000,137.304000,392.446000,137.304000,405.087000C137.304000,417.727000,127.020000,428.010000,114.381000,428.010000ZM181.243000,442.637000C180.337000,444.202000,179.539000,445.804000,178.842000,447.432000C168.457000,442.308000,158.954000,435.910000,150.454000,428.305000C154.781000,421.606000,157.304000,413.638000,157.304000,405.087000C157.304000,381.419000,138.049000,362.163000,114.381000,362.163000C113.370000,362.163000,112.370000,362.211000,111.375000,362.280000C107.839000,348.109000,106.313000,333.070000,106.807000,317.368000C112.935000,318.978000,119.362000,319.843000,125.988000,319.843000C135.689000,319.843000,144.958000,317.985000,153.487000,314.639000C173.917000,307.114000,199.191000,299.540000,218.748000,295.094000C239.032000,290.482000,257.458000,281.304000,270.631000,269.253000C285.105000,256.014000,292.754000,240.251000,292.754000,223.671000C292.754000,220.222000,294.107000,216.988000,296.564000,214.567000C299.019000,212.147000,302.228000,210.860000,305.727000,210.892000C312.474000,210.990000,318.354000,217.194000,318.311000,224.169000C318.235000,236.666000,315.292000,248.772000,309.564000,260.150000C300.161000,278.833000,283.825000,293.492000,263.565000,301.427000L245.172000,308.632000C234.670000,312.746000,227.022000,321.794000,224.715000,332.835000C222.407000,343.875000,225.792000,355.228000,233.766000,363.201000C238.976000,368.411000,245.928000,371.789000,253.343000,372.712000C278.118000,375.799000,296.882000,396.712000,297.458000,421.603000C286.350000,424.510000,274.364000,426.098000,261.869000,426.098000C250.572000,426.098000,239.461000,424.797000,228.845000,422.232000C210.360000,417.766000,190.784000,426.155000,181.243000,442.637000ZM227.500000,489.523000C222.920000,488.856000,218.375000,488.071000,213.884000,487.138000C206.519000,485.607000,200.530000,480.780000,197.449000,473.893000C194.349000,466.962000,194.752000,459.222000,198.552000,452.658000C203.686000,443.789000,214.209000,439.276000,224.147000,441.675000C227.613000,442.513000,231.127000,443.219000,234.673000,443.820000Z" transform="translate(-251.597961,-256.005280)" fill="rgb(0,0,0)" stroke="none" stroke-width="1"/></g><g id="efj4mvmkwthl22_to" transform="translate(638.721052,314.640762)"><path id="efj4mvmkwthl22" d="M153.487000,314.639000C153.343000,314.692000,153.632000,314.593000,153.487000,314.639000Z" transform="translate(-153.487259,-314.640762)" fill="rgb(0,0,0)" stroke="none" stroke-width="1"/></g></g><path id="efj4mvmkwthl23" d="M451.540000,347.308000C446.018000,347.308000,441.540000,351.786000,441.540000,357.308000C441.540000,362.830000,446.018000,367.308000,451.540000,367.308000L451.593000,367.308000C457.115000,367.308000,461.567000,362.830000,461.567000,357.308000C461.567000,351.786000,457.062000,347.308000,451.540000,347.308000Z" transform="matrix(1 0 0 1 485.23379299999988 0)" fill="rgb(0,0,0)" stroke="none" stroke-width="1"/></g></g></svg>

<svg id="Capa_1" enable-background="new 0 0 512.01 512.01" height="512" viewBox="0 0 512.01 512.01" width="512" xmlns="http://www.w3.org/2000/svg"><g id="XMLID_235_"><g id="XMLID_205_"><g id="XMLID_1826_"><path id="XMLID_1883_" d="m131.59 177.897c-23.518-48.475-19.243-103.367 15.265-137.876 45.784-45.784 127.448-38.349 182.403 16.606 52.119 52.119 61.495 128.263 23.268 175.038z" fill="#ffd88e"/></g><g id="XMLID_1823_"><path id="XMLID_1882_" d="m283.329 213.521-149.985-12.63c-49.317 81.015-49.965 174.761 4.992 229.718 13.613 13.613 29.607 23.811 47.197 30.706-1.465 16.118 9.08 32.029 26.315 35.613 15.937 3.314 32.708 5.082 50.022 5.082 104.781 0 189.723-64.785 189.723-144.702 0-74.383-73.586-135.658-168.264-143.787z" fill="#ff7a7a"/></g><g id="XMLID_1822_"><path d="m189.898 447.647c-11.355 19.616-.241 44.667 21.95 49.281 7.819 1.626 15.841 2.874 24.027 3.73l9.831-65.4-.027-.019c-6.591-.695-13.006-1.792-19.183-3.285-14.326-3.463-29.215 2.938-36.598 15.693z" fill="#f4c6af"/></g><g id="XMLID_1821_"><path id="XMLID_1829_" d="m248.819 317.945 18.394-7.205c22.105-8.659 40.61-24.887 51.284-46.093 6.364-12.643 9.728-26.284 9.814-40.417.005-.727-.029-1.448-.094-2.162l-.152-.413c.037.011.074.022.112.033-1.214-11.255-10.812-20.629-22.305-20.796-12.736-.185-23.118 10.083-23.118 22.777 0 28.282-28.252 53.038-66.224 61.672-20.783 4.726-45.949 12.361-65.92 19.718l-.003-.016c-7.603 3.084-15.909 4.798-24.619 4.798-10.127 0-19.717-2.3-28.279-6.401-4.854 48.836 8.209 94.75 40.626 127.167 13.613 13.613 29.607 23.811 47.197 30.706.421-4.635 1.829-9.287 4.365-13.668 7.383-12.755 22.272-19.156 36.597-15.693 11.136 2.692 23.026 4.147 35.374 4.147 17.502 0 34.081-2.927 48.9-8.152l-3.285-5.168c0-30.832-23.081-56.274-52.907-59.989-5.194-.647-10.04-2.957-13.741-6.658-11.882-11.883-7.666-32.056 7.984-38.187z" fill="#cbf4fb"/></g><g id="XMLID_1819_"><path d="m166.859 182.783 3.032-3.026c16.841-16.811 23.443-41.325 17.322-64.32h23.752c7.323 0 14.525-1.864 20.928-5.417 16.833-9.34 37.817-6.395 51.429 7.217l2.72 2.72c25.13 25.13 25.13 65.874 0 91.004-25.13 25.13-65.874 25.13-91.004 0z" fill="#f4c6af"/></g><g id="XMLID_1810_"><circle cx="125.988" cy="244.299" fill="#ffd0c6" r="65.544"/></g><g id="XMLID_295_"><circle cx="114.381" cy="405.087" fill="#f4c6af" r="32.923"/></g></g><g id="XMLID_43_"><path id="XMLID_46_" d="m247.029 166.755c-5.522 0-10 4.478-10 10 0 1.134-.922 2.056-2.056 2.056-5.522 0-10 4.478-10 10s4.478 10 10 10c12.161 0 22.056-9.895 22.056-22.056 0-5.522-4.477-10-10-10z"/><g id="XMLID_80_"><path id="XMLID_1818_" d="m446.59 391.866c-5.104-2.123-10.953.295-13.073 5.394-23.566 56.674-92.546 94.751-171.647 94.751-4.833 0-9.649-.162-14.445-.449l7.162-45.638c2.42.106 4.847.177 7.283.177 32.582 0 63.326-9.489 86.569-26.719 24.141-17.896 37.436-41.971 37.436-67.791 0-5.522-4.478-10-10-10s-10 4.478-10 10c0 26.585-19.539 49.958-48.865 63.148-3.654-31.883-28.729-57.825-61.194-61.871-3.021-.375-5.827-1.727-7.906-3.806-3.233-3.234-4.552-7.656-3.616-12.134s3.915-8.003 8.175-9.671l18.393-7.205c24.856-9.737 44.946-27.816 56.568-50.908 5.452-10.831 8.869-22.211 10.219-33.949 45.174 15.867 80.421 45.694 95.581 81.476 1.615 3.812 5.317 6.102 9.213 6.102 1.301 0 2.623-.256 3.896-.795 5.085-2.155 7.461-8.024 5.307-13.109-9.389-22.157-25.49-42.733-46.565-59.503-10.951-8.714-23.286-16.411-36.577-22.912 14.573-23.509 20.244-52.51 16.008-82.919-4.781-34.314-21.893-67.69-48.182-93.979-28.23-28.229-64.029-45.62-100.806-48.968-37.456-3.41-71.461 8.082-95.74 32.361-33.75 33.75-42.125 86.096-22.792 136.359-37.427 4.464-66.548 36.381-66.548 74.991 0 27.484 14.758 51.58 36.761 64.799-1.416 20.74.287 40.597 5.075 59.208-12.467 7.519-20.823 21.192-20.823 36.781 0 23.668 19.255 42.923 42.923 42.923 7.867 0 15.24-2.137 21.586-5.846 11.631 10.635 24.893 19.286 39.565 25.803.413 4.776 1.619 9.529 3.659 14.091 5.733 12.818 16.894 21.808 30.621 24.662 16.887 3.511 34.401 5.291 52.057 5.291 42.832 0 83.648-10.311 118.038-29.815 34.204-19.4 59.127-46.115 72.076-77.256 2.122-5.101-.293-10.954-5.392-13.074zm-292.663-344.774c20.007-20.007 48.341-29.443 79.784-26.587 32.127 2.925 63.548 18.264 88.476 43.192 45.701 45.699 56.985 110.953 27.727 154.692-4.366-1.664-8.805-3.207-13.309-4.614-3.913-11.629-14.162-20.648-26.359-22.518 9.72-26.387 4.023-57.217-17.131-78.372l-2.721-2.721c-16.679-16.677-42.73-20.332-63.354-8.89-4.905 2.723-10.464 4.161-16.075 4.161h-23.752c-3.106 0-6.036 1.443-7.929 3.906s-2.534 5.665-1.734 8.666c5.186 19.48-.455 40.429-14.723 54.67 0 0-3.484 3.501-3.692 3.753-6.307-3.093-13.108-5.32-20.247-6.554-20.441-45.201-14.707-93.039 15.039-122.784zm45.713 180.466c12.357 8.143 26.628 12.216 40.899 12.216 10.532 0 21.06-2.228 30.822-6.663-5.559 19.019-27.459 35.752-57.047 42.481-6.998 1.591-14.648 3.555-22.528 5.757 6.194-10.956 9.748-23.592 9.748-37.05-.001-5.754-.669-11.352-1.894-16.741zm2.468-23.668-21.253-21.253c13.623-15.819 20.166-36.582 18.258-57.2h11.851c8.998 0 17.912-2.308 25.78-6.673 12.86-7.138 29.106-4.856 39.506 5.544l2.721 2.721c10.266 10.265 15.919 23.913 15.919 38.431s-5.653 28.166-15.919 38.431c-21.19 21.191-55.671 21.191-76.863-.001zm-131.664 40.409c0-30.628 24.917-55.545 55.544-55.545 30.266 0 54.938 24.335 55.518 54.464-1.223 2.326-3.959 3.553-6.571 2.788-5.301-1.546-10.854 1.491-12.405 6.792-1.55 5.301 1.491 10.854 6.792 12.405 2.385.696 4.814 1.042 7.23 1.042.153 0 .306-.012.459-.014-8.522 19.75-28.181 33.612-51.022 33.612-30.628 0-55.545-24.917-55.545-55.544zm43.937 183.711c-12.64 0-22.923-10.283-22.923-22.923 0-12.641 10.283-22.924 22.923-22.924s22.923 10.283 22.923 22.924c0 12.64-10.284 22.923-22.923 22.923zm66.862 14.627c-.906 1.565-1.704 3.167-2.401 4.795-10.385-5.124-19.888-11.522-28.388-19.127 4.327-6.699 6.85-14.667 6.85-23.218 0-23.668-19.255-42.924-42.923-42.924-1.011 0-2.011.048-3.006.117-3.536-14.171-5.062-29.21-4.568-44.912 6.128 1.61 12.555 2.475 19.181 2.475 9.701 0 18.97-1.858 27.499-5.204 20.43-7.525 45.704-15.099 65.261-19.545 20.284-4.612 38.71-13.79 51.883-25.841 14.474-13.239 22.123-29.002 22.123-45.582 0-3.449 1.353-6.683 3.81-9.104 2.455-2.42 5.664-3.707 9.163-3.675 6.747.098 12.627 6.302 12.584 13.277-.076 12.497-3.019 24.603-8.747 35.981-9.403 18.683-25.739 33.342-45.999 41.277l-18.393 7.205c-10.502 4.114-18.15 13.162-20.457 24.203-2.308 11.04 1.077 22.393 9.051 30.366 5.21 5.21 12.162 8.588 19.577 9.511 24.775 3.087 43.539 24 44.115 48.891-11.108 2.907-23.094 4.495-35.589 4.495-11.297 0-22.408-1.301-33.024-3.866-18.485-4.466-38.061 3.923-47.602 20.405zm46.257 46.886c-4.58-.667-9.125-1.452-13.616-2.385-7.365-1.531-13.354-6.358-16.435-13.245-3.1-6.931-2.697-14.671 1.103-21.235 5.134-8.869 15.657-13.382 25.595-10.983 3.466.838 6.98 1.544 10.526 2.145z"/><path id="XMLID_1867_" d="m153.487 314.639c-.144.053.145-.046 0 0z"/></g><path id="XMLID_1869_" d="m451.54 347.308c-5.522 0-10 4.478-10 10s4.478 10 10 10h.053c5.522 0 9.974-4.478 9.974-10s-4.505-10-10.027-10z"/></g></g></svg>
